components/Common/Svg/svgs/redesign.svg

<svg width="40" height="40" viewBox="0 0 40 40" fill="none" xmlns="http://www.w3.org/2000/svg">
<path fill-rule="evenodd" clip-rule="evenodd" d="M3.66357 13.5339C3.66357 7.39344 8.64143 2.41558 14.7819 2.41558C19.9613 2.41558 24.3158 5.95797 25.5501 10.7536C25.6877 11.2885 26.2329 11.6104 26.7678 11.4728C27.3026 11.3351 27.6246 10.7899 27.4869 10.2551C26.0307 4.59727 20.8959 0.415585 14.7819 0.415585C7.53686 0.415585 1.66357 6.28887 1.66357 13.5339C1.66357 18.3749 4.28579 22.6035 8.18734 24.8767C8.2106 24.8915 8.23451 24.9053 8.25901 24.9182C10.1794 26.0209 12.4052 26.6517 14.7783 26.6523L14.7819 26.6523L14.7852 26.6523C15.5278 26.6521 16.2569 26.5901 16.9671 26.4709C17.5118 26.3796 17.8792 25.8639 17.7879 25.3193C17.6965 24.7746 17.1809 24.4071 16.6362 24.4985C16.355 24.5457 16.0701 24.5823 15.7819 24.608V21.6364L15.7822 21.6128C15.7822 21.0746 15.996 20.5583 16.3766 20.1777C16.7573 19.7971 17.2735 19.5833 17.8118 19.5833C18.35 19.5833 18.8663 19.7971 19.2469 20.1777C19.6197 20.5505 19.8325 21.0533 19.8411 21.5795V24.0316C19.8411 24.3278 19.9699 24.594 20.1746 24.7771C20.3013 25.4078 20.4956 26.0249 20.7554 26.6175L13.2238 33.1231C13.2053 33.1391 13.1873 33.1558 13.17 33.1731C12.4205 33.9234 11.9997 34.9406 12 36.0011C12.0003 37.0616 12.4217 38.0786 13.1716 38.8284C13.9214 39.5783 14.9384 39.9997 15.9989 40C17.0594 40.0003 18.0766 39.5795 18.8269 38.83C18.8442 38.8127 18.8609 38.7948 18.8769 38.7762L25.3825 31.2446C26.8374 31.8823 28.4401 32.1257 30.0278 31.9427C31.8879 31.7283 33.6348 30.9393 35.0254 29.6856C36.416 28.4318 37.3812 26.7757 37.7865 24.9477C38.1918 23.1198 38.0172 21.2109 37.2868 19.4869C37.1833 19.2426 36.9871 19.0495 36.7412 18.95C36.4954 18.8505 36.22 18.8527 35.9758 18.9562L35.9753 18.9564C35.8569 19.0066 35.7493 19.0791 35.6584 19.1701L30.7916 24.0369L28.4345 23.5655L27.9631 21.2084L32.8299 16.3416C32.9195 16.252 32.9913 16.1462 33.0414 16.0298L33.0416 16.0293C33.1468 15.7847 33.1502 15.5084 33.051 15.2613C32.9518 15.0143 32.7582 14.817 32.5131 14.7132C30.7891 13.9828 28.8802 13.8082 27.0523 14.2135C25.2243 14.6188 23.5682 15.584 22.3144 16.9746C21.9478 17.3813 21.6208 17.8185 21.3364 18.2801L18.9649 13.1418C18.9573 13.124 18.9492 13.1065 18.9407 13.0893L15.6899 6.04585C15.5264 5.6917 15.172 5.46491 14.7819 5.46491C14.3919 5.46491 14.0374 5.6917 13.8739 6.04585L10.616 13.1047L10.6062 13.1261L7.81477 19.1741C7.75413 19.3054 7.72273 19.4484 7.72273 19.5931V21.6128V22.1242C5.24417 20.085 3.66357 16.9941 3.66357 13.5339ZM14.7819 8.85121L16.4816 12.5339H13.0822L14.7819 8.85121ZM18.8784 17.727L17.4047 14.5339H12.1591L10.6854 17.7271C11.03 17.6324 11.3886 17.5833 11.7523 17.5833C12.821 17.5833 13.846 18.0078 14.6017 18.7635C14.6641 18.8259 14.7242 18.8901 14.782 18.9561C14.8399 18.8901 14.9 18.8259 14.9624 18.7635C15.7181 18.0078 16.7431 17.5833 17.8118 17.5833C18.1753 17.5833 18.5338 17.6324 18.8784 17.727ZM9.72273 21.6128V23.4372C10.9596 24.0703 12.3306 24.4786 13.7819 24.6079V21.6128C13.7819 21.0746 13.5681 20.5583 13.1875 20.1777C12.8068 19.7971 12.2906 19.5833 11.7523 19.5833C11.214 19.5833 10.6978 19.7971 10.3172 20.1777C9.93656 20.5583 9.72273 21.0746 9.72273 21.6128ZM27.4852 16.1661C28.3937 15.9646 29.3279 15.9474 30.2338 16.1093L26.1705 20.1727C25.934 20.4091 25.8314 20.748 25.897 21.0759L26.6041 24.6114C26.6833 25.0073 26.9927 25.3167 27.3886 25.3959L30.9241 26.103C31.252 26.1686 31.5909 26.066 31.8273 25.8295L35.8907 21.7662C36.0526 22.6721 36.0354 23.6063 35.8339 24.5148C35.5187 25.9367 34.7679 27.2249 33.6862 28.2001C32.6045 29.1754 31.2456 29.7891 29.7988 29.9559C28.3602 30.1217 26.9058 29.8375 25.6357 29.1427C25.2238 28.9013 24.6918 28.9846 24.3742 29.3523L17.3898 37.4382C17.0171 37.7984 16.5187 38.0001 15.9995 38C15.4692 37.9999 14.9607 37.7891 14.5858 37.4142C14.2109 37.0393 14.0002 36.5308 14 36.0006C13.9999 35.4813 14.2016 34.9829 14.5618 34.6101L22.6476 27.6259C23.0131 27.3102 23.0986 26.7814 22.8599 26.3689C22.1632 25.0977 21.8781 23.6416 22.0441 22.2012C22.2109 20.7544 22.8246 19.3955 23.7999 18.3138C24.7751 17.2321 26.0633 16.4813 27.4852 16.1661Z" fill="#161616"/>
</svg>

<svg width="40" height="40" viewBox="0 0 40 40" fill="none" xmlns="http://www.w3.org/2000/svg"><path fill-rule="evenodd" clip-rule="evenodd" d="M3.664 13.534c0-6.14 4.977-11.118 11.118-11.118 5.18 0 9.534 3.542 10.768 8.338a1 1 0 1 0 1.937-.499C26.03 4.597 20.896.415 14.782.415 7.537.416 1.664 6.29 1.664 13.535a13.113 13.113 0 0 0 13.114 13.118h.007c.743 0 1.472-.062 2.182-.181a1 1 0 1 0-.33-1.973c-.282.048-.567.084-.855.11v-2.995a2.03 2.03 0 0 1 4.06-.034v2.453c0 .296.128.562.333.745.126.63.32 1.248.58 1.84l-7.531 6.506a4 4 0 1 0 5.653 5.653l6.506-7.531a9.004 9.004 0 0 0 11.904-11.758 1 1 0 0 0-1.311-.53.999.999 0 0 0-.318.213l-4.866 4.867-2.358-.471-.47-2.358 4.866-4.866a1 1 0 0 0-.317-1.628 9.003 9.003 0 0 0-11.177 3.566l-2.371-5.138a1.043 1.043 0 0 0-.024-.053L15.69 6.046a1 1 0 0 0-1.816 0l-3.258 7.059-.01.021-2.791 6.048a1 1 0 0 0-.092.42V22.123a11.096 11.096 0 0 1-4.06-8.59ZM14.782 8.85l1.7 3.683h-3.4l1.7-3.683Zm4.096 8.876-1.473-3.193h-5.246l-1.474 3.193a4.025 4.025 0 0 1 4.097 1.23 4.03 4.03 0 0 1 4.096-1.23Zm-9.155 3.886v1.824a11.047 11.047 0 0 0 4.059 1.17v-2.994a2.03 2.03 0 0 0-4.06 0Zm17.762-5.447a7.003 7.003 0 0 1 2.749-.057l-4.064 4.064a1 1 0 0 0-.273.903l.707 3.535a1 1 0 0 0 .785.785l3.535.707a1 1 0 0 0 .903-.274l4.064-4.063a7.003 7.003 0 0 1-10.255 7.377 1 1 0 0 0-1.262.21l-6.984 8.085a2 2 0 0 1-2.828-2.828l8.086-6.984a1 1 0 0 0 .212-1.257 7.003 7.003 0 0 1 4.625-10.203Z" fill="#161616"/></svg>
